X: 6343
T: Cascade, The
R: polka
M: 2/4
K: Gmajor
|:BA/B/ cD|ED AD|BA/B/ dG|BA A2|
BA/B/ cD|ED AD|BA/B/ dA|AG G2:|
|:Bd dB/d/|eB dG|BA/B/ dG|BA A2|
Bd dB/d/|eB dG|BA/B/ dA|1 AG G2:|2 AG GA/G/||
|:F2 G>A|EA cA|FE/F/ A>D|FE EG|
FE/F/ G>A|EA c/B/A/G/|FE/F/ GE|1 ED D2:|2 ED DA/G/||
|:F2 AF/A/|BF AD|FE/F/ A>D|FE EG|
FA A/B/A/F/|BF A/B/A/G/|FE/F/ GE|ED D2:|
|:Bd dB/d/|GB dG|BA/B/ dG|BA A2|
Bd dB/d/|GB dG|BA/B/ dA|AG G2:|
|:BA/B/ cD|ED AD|B2 d>G|BA A2|
BA/B/ cD|ED AD|B2 c/d/c/A/|AG G2:|
|:Bd dB/d/|eB dG|BA/B/ dG|BA- Ac|
[1 Bd- dB/d/|eB dG|BA/B/ dA|AG G2:|
[2 B2 cD|ED AD|B2 d/c/B/A/|AG G2:|

